X:1
T:Skjemtevise
T:Skjemtevise
T:Peter Arnold Heise
T:B. Bjørnson
C:P. Heise
Z:B. Bjørnson
%%score [ 1 2 3 4 ]
L:1/8
Q:1/4=102
M:3/8
K:F
V:1 treble-8 nm="T1"
V:2 treble-8 nm="T2"
V:3 bass nm="B1"
V:4 bass nm="B2"
V:1
"^Vivace""^(Synges af Fis Dur)"!f! !>!f2 A/ B/ | !>!c d c | B A G | A!<(! B c!<)! | %4
w: 1."Dans!" raab- te|Fe- len og|skrat- ted paa|Streng- en, saa|
w: 2."Hej!" sa 'n|E- rik og|spend- te i|Ta- get, saa|
w: 3."Hej!" sa 'n|Ras- mus tog|Ran- di om|Li- ve, "hej,|
 (f3/2!>(! f/) e!>)! | d c B | A!<(! B G!<)! | (!>!f3 |!>(! e3 | d3!>)! | c2)!mf! c | %11
w: Lens- * mands-|dreng- en sprat|op og sa':|"Ho!"|_||* saa|
w: Bjel- ker- ne|bra- ged og|Væg- ge- ne|skreg,|_||* saa|
w: skynd dig at|gi- ve den|Kys- sen du|ved!|_||* Hej,|
 (!>!c3/2 c/) d | f!<(! e d!<)! | !>!c"^cresc." c e |!ff! !>!g3- | !fermata!g3 |!mf! !>!c3 | %17
w: Lens- * mands-|dreng- en sprat|op og sa':|"Ho!"|_|"Stans!|
w: Bjel- ker- ne|bra- ged og|Væg- ge- ne|skreg,|_|"Stop!|
w: skynd dig at|gi- ve den|Kys- sen du|ved!|_|"Nej!|
 !>!c3 | !>!c3 | !>!c3 |!f! c2 G/ A/ | B c B | (A G) F | G A!mf! B | c3/2 c/ c |"^cresc." ^c c z | %26
w: Stans!|Stans!|Stans!|"Stans!" raab- te|O- la, slog|Be- * na|un- da'n, saa|Lens- mand dat|af 'n,|
w: Stop!|Stop!|Stop!|"Stop!" sa 'n|El- ling og|tog ham i|Kra- gen og|holdt ham for|Da- gen,|
w: Nej!|Nej!|Nej!|"Nej!" svar- te|Ran- di, en|Ør- fig hun|gav ham og|sled sig i-|fra ham,|
"^poco a poco" d3/2 d/ d | e e z |!f!!<(! f3/2 f/ f!<)! |!ff! g g z | z2!p! a | !>!c f e | d2 f | %33
w: Lens- mand dat|af 'n,|Lens- mand dat|af 'n,|og|Jen- ter- ne|lo, og|
w: holdt ham for|Da- gen,|holdt ham for|Da- gen:|"Du|er nok for|veg! du|
w: sled sig i|fra ham,|sled sig i|fra ham.|"Der|fik du be-|sked! der|
 !>!c f e | d2 f | !>!e3- | e d c |"^dim." f3 |"^e rit." c3 |!pp!!<(! !>!c3/2 c/!<)! a | %40
w: Jen- ter- ne|lo, og|Jen-|* ter- ne|lo,|og|Jen- ter- ne|
w: er nok for|veg! du|er|_ nok for|veg!|du|er nok for|
w: fik du Be-|sked! der|fik|_ du Be-|sked!|der|fik du Be-|
!>(! !fermata!f3!>)! |] %41
w: lo.|
w: veg!"|
w: sked!|
V:2
!f! !>!A2 F/ G/ | !>!A B A | G F E | F!<(! G A!<)! | (A3/2!>(! A/) c!>)! | B A G | F!<(! G E!<)! | %7
w: 1."Dans!" raab- te|Fe- len og|skrat- ted paa|Streng- en, saa|Lens- * mands-|dreng- en sprat|op og sa':|
w: 2."Hej!" sa 'n|E- rik og|spend- te i|Ta- get, saa|Bjel- ker- ne|bra- ged og|Væg- ge- ne|
w: 3."Hej!" sa 'n|Ras- mus tog|Ran- di om|Li- ve, "hej,|skynd dig at|gi- ve den|Kys- sen du|
 (!>!A3 |!>(! c3 | B3!>)! | A2)!mf! c | (!>!c3/2 c/) c | c!<(! c =B!<)! | !>!G"^cresc." G c | %14
w: "Ho!"|_||* saa|Lens- * mands-|dreng- en sprat|op og sa':|
w: skreg,|_||* saa|Bjel- ker- ne|bra- ged og|Væg- ge- ne|
w: ved!|_||* Hej,|skynd dig at|gi- ve den|Kys- sen du|
!ff! !>!e3- | !fermata!e3 |!f! c2 G/ A/ | B c B | (A G) F | (GA) B |!mf! !>!c3 | !>!c3 | !>!c3 | %23
w: "Ho!"|_|"Stans!" raab- te|O- la, slog|Be- * na|un- * da'n|Stans!|Stans!|Stans!|
w: skreg,|_|"Stop!" sa 'n|El- ling og|tog ham i|Kra- * gen,|Stop!|Stop!|Stop!|
w: ved!|_|"Nej!" svar- te|Ran- di, en|Ør- fig hun|gav _ ham,|Nej!|Nej!|Nej!|
 !>!c2 B | A3/2 A/ A |"^cresc." B B z |"^poco a poco" A3/2 A/ A | ^c c z |!f!!<(! d3/2 d/ d!<)! | %29
w: Stans! saa|Lens- mand dat|af 'n,|Lens- mand dat|af 'n,|Lens- mand dat|
w: Stop! og|holdt ham for|Da- gen,|holdt ham for|Da- gen,|holdt ham for|
w: Nej! og|sled sig i-|fra ham,|sled sig i|fra ham,|sled sig i|
!ff! e e z | z2!p! A | !>!A A c | B2 B | !>!A A c | B2 B | !>!B3- | B B B |"^dim." A3- | %38
w: af 'n,|og|Jen- ter- ne|lo, og|Jen- ter- ne|lo, og|Jen-|* ter- ne|lo,|
w: Da- gen:|"Du|er nok for|veg! du|er nok for|veg! du|er|_ nok for|veg,|
w: fra ham.|"Der|fik du be-|sked! der|fik du Be-|sked! der|fik|_ du Be-|sked!|
"^e rit." A2 A |!pp!!<(! !>!c3-!<)! |!>(! !fermata!c3!>)! |] %41
w: _ de|lo.|_|
w: _ for|veg!"|_|
w: _ Be-|sked!"|_|
V:3
!f! !>!C,3 | !>!C,3 | !>!C,3 | !>!C,3 | !>!C,3 | !>!C,3 |!<(! !>!C,3!<)! | !>!C,3- |!>(! C,3- | %9
w: 1."Dans!|Dans!|Dans!|Dans!|Dans!|Dans!|Dans!|Dans!|_|
w: 2."Hop!|Hop!|Hop!|Hop!|Hop!|Hop!|Hop!|Hop!|_|
w: 3."Hej!|Hej!|Hej!|Hej!|Hej!|Hej!|Hej!|Hej!|_|
 C,3-!>)! | C,2!mf! A, | (!>!G,3/2 G,/) A, | C!<(! G, F,!<)! | !>!E,"^cresc." E, G, |!ff! !>!C3- | %15
w: |* saa|Lens- * mands-|dreng- en sprat|op og sa':|"Ho!"|
w: |* saa|Bjel- ker- ne|bra- ged og|Væg- ge- ne|skreg,|
w: |* Hej,|skynd dig at|gi- ve den|Kys- sen du|ved!|
 !fermata!C3 |!f! C2 E,/ F,/ | G, A, G, | (F, C,) A,, | (C,F,) G, |!mf! !>!C3 | !>!C3 | !>!C3 | %23
w: _|"Stans!" raab- te|O- la, slog|Be- * na|un- * da'n|Stans!|Stans!|Stans!|
w: _|"Stop!" sa 'n|El- ling og|tog ham i|Kra- * gen,|Stop!|Stop!|Stop!|
w: _|"Nej!" svar- te|Ran- di, en|Ør- fig hun|gav _ ham,|Nej!|Nej!|Nej!|
 !>!C2 B, | A,3/2 A,/ A, |"^cresc." G, G, z |"^poco a poco" F,3/2 F,/ F, | G, G, z | %28
w: Stans! saa|Lens- mand dat|af 'n,|Lens- mand dat|af 'n,|
w: Stop! og|holdt ham for|Da- gen,|holdt ham for|Da- gen,|
w: Nej! og|sled sig i-|fra ham,|sled sig i|fra ham,|
!f!!<(! A,3/2 A,/ A,!<)! |!ff! B, B, z | z2!p! E, | !>!F, F, F, | F,2 F, | !>!F, F, F, | F,2 F, | %35
w: Lens- mand dat|af 'n,|og|Jen- ter- ne|lo, og|Jen- ter- ne|lo, og|
w: holdt ham for|Da- gen:|"Du|er nok for|veg! du|er nok for|veg! du|
w: sled sig i|fra ham.|"Der|fik du be-|sked! der|fik du Be-|sked! der|
 !>!G,3- | G, F, E, |"^dim." F,3- |"^e rit." F,2 F, |!pp!!<(! !>!A,3-!<)! |!>(! !fermata!A,3!>)! |] %41
w: Jen-|* ter- ne|lo,|_ de|lo.|_|
w: er|_ nok for|veg,|_ for|veg!"|_|
w: fik|_ du Be-|sked!|_ Be-|sked!"|_|
V:4
!f! !>!F,,3 | !>!F,,3 | !>!F,,3 | !>!F,,3 | !>!F,,3 | !>!F,,3 |!<(! !>!F,,3!<)! | !>!F,,3- | %8
w: 1."Dans!|Dans!|Dans!|Dans!|Dans!|Dans!|Dans!|Dans!|
w: 2."Hop!|Hop!|Hop!|Hop!|Hop!|Hop!|Hop!|Hop!|
w: 3."Hej!|Hej!|Hej!|Hej!|Hej!|Hej!|Hej!|Hej!|
!>(! F,,3- | F,,3-!>)! | F,,2!mf! F, | (!>!E,3/2 E,/) F, | A,!<(! G, G,!<)! | %13
w: _||* saa|Lens- * mands-|dreng- en sprat|
w: _||* saa|Bjel- ker- ne|bra- ged og|
w: _||* Hej,|skynd dig at|gi- ve den|
 !>!C,"^cresc." E, G, |!ff! !>!C3- | !fermata!C3 |!mf! !>!C3 | !>!C3 | !>!C3 | !>!C3 | %20
w: op og sa':|"Ho!"|_|"Stans!|Stans!|Stans!|Stans!|
w: Væg- ge- ne|skreg,|_|"Stop!|Stop!|Stop!|Stop!|
w: Kys- sen du|ved!|_|"Nej!|Nej!|Nej!|Nej!|
!f! C2 E,/ F,/ | G, A, G, | (F, C,) A,, | C, F, G, | A,3/2 A,/ A, |"^cresc." G, G, z | %26
w: "Stans!" raab- te|O- la, slog|Be- * na|un- da'n saa|Lens- mand dat|af 'n,|
w: "Stop!" sa 'n|El- ling og|tog ham i|Kra- gen og|holdt ham for|Da- gen,|
w: "Nej!" svar- te|Ran- di, en|Ør- fig hun|gav ham og|sled sig i-|fra ham,|
"^poco a poco" F,3/2 F,/ F, | E, E, z |!f!!<(! D,3/2 D,/ D,!<)! |!ff! C, C, z | z2!p! C, | %31
w: Lens- mand dat|af 'n,|Lens- mand dat|af 'n,|og|
w: holdt ham for|Da- gen,|holdt ham for|Da- gen:|"Du|
w: sled sig i|fra ham,|sled sig i|fra ham.|"Der|
 !>!F, F,, A,, | B,,2 D, | !>!F, F,, A,, | B,,2 D, | !>!C,3- | C, C, C, |"^dim." F,,2 C, | %38
w: Jen- ter- ne|lo, og|Jen- ter- ne|lo, og|Jen-|* ter- ne|lo, og|
w: er nok for|veg! du|er nok for|veg! du|er|_ nok for|veg, du|
w: fik du be-|sked! der|fik du Be-|sked! der|fik|_ du Be-|sked! der|
"^e rit." !>!C,3/2 C,/ A, |!pp!!<(! !>!F,3-!<)! |!>(! !fermata!F,3!>)! |] %41
w: Jen- ter- ne|lo.|_|
w: er nok for|veg!"|_|
w: fik du Be-|sked!"|_|

